X:3158
L:1/8
M:4/4
K:C
[M:2/2][K:D] .abc ef | gfed cAAB | cAdB cAAf | gfed cdeg | fage d2 :| A2 | d2 (fd) adfd | 
 d2 (fa) gece | d2 (fd) adfd | fage d2 A2 | d2 (fd) adfd | d2 (fa) gece | f2 ff g2 gg | fage d2 |]

